Ontario/build/img/social/google_plus.svg

<svg xmlns="http://www.w3.org/2000/svg" width="15" height="16"><style/><g id="Header"><g id="social_buttons"><path id="google plus" d="M8.52 9.22c-1.63-1.16-2.24-1.71-1.2-2.63 1.05-.93 1.87-1.67 1.87-3.38C9.19 1.49 7.78.62 7.78.62S8.8.77 9.35.46c.54-.3.78-.5.78-.5h-5.2C3.88-.04.99 1.14.99 3.91c0 2.76 3 3.36 4.09 3.31-.61.75-.09 1.43.24 1.78.33.35.26.46-.13.46s-5.23.05-5.23 3.51c0 3.47 6.43 3.72 8.54 1.85 2.11-1.87 1.65-4.44.02-5.6zM5.43 6.54C2.84 6.54 1.66.48 4.71.48c2.37-.08 4.16 6.06.72 6.06zm-.31 8.48c-2.15 0-3.31-1.08-3.31-2.68 0-1.61 1.57-2.4 4.51-2.4.8.62 2.22 1.36 2.22 2.86 0 1.49-1.27 2.22-3.42 2.22zM13.01 0v1.97h1.96v1.02h-1.96v1.97H12V2.99h-2V1.97h2V0h1.01z" fill="#fff"/></g></g></svg>

<svg xmlns="http://www.w3.org/2000/svg" viewBox="0 0 15 16" width="15" height="16">
	<style>
		tspan { white-space:pre }
		.shp0 { fill: #ffffff } 
	</style>
	<g id="Header">
		<g id="social_buttons">
			<path id="google plus" class="shp0" d="M8.52 9.22C6.89 8.06 6.28 7.51 7.32 6.59C8.37 5.66 9.19 4.92 9.19 3.21C9.19 1.49 7.78 0.62 7.78 0.62C7.78 0.62 8.8 0.77 9.35 0.46C9.89 0.16 10.13 -0.04 10.13 -0.04C9.13 -0.04 5.97 -0.04 4.93 -0.04C3.88 -0.04 0.99 1.14 0.99 3.91C0.99 6.67 3.99 7.27 5.08 7.22C4.47 7.97 4.99 8.65 5.32 9C5.65 9.35 5.58 9.46 5.19 9.46C4.8 9.46 -0.04 9.51 -0.04 12.97C-0.04 16.44 6.39 16.69 8.5 14.82C10.61 12.95 10.15 10.38 8.52 9.22ZM5.43 6.54C2.84 6.54 1.66 0.48 4.71 0.48C7.08 0.4 8.87 6.54 5.43 6.54ZM5.12 15.02C2.97 15.02 1.81 13.94 1.81 12.34C1.81 10.73 3.38 9.94 6.32 9.94C7.12 10.56 8.54 11.3 8.54 12.8C8.54 14.29 7.27 15.02 5.12 15.02ZM13.01 0L13.01 1.97L14.97 1.97L14.97 2.99L13.01 2.99L13.01 4.96L12 4.96L12 2.99L10 2.99L10 1.97L12 1.97L12 0L13.01 0Z" />
		</g>
	</g>
</svg>
